public/images/sponsors/Microsoft.svg

<svg fill="none" height="86" viewBox="0 0 172 86" width="172" xmlns="http://www.w3.org/2000/svg" xmlns:xlink="http://www.w3.org/1999/xlink"><clipPath id="a"><path d="m0 25h172v36.7634h-172z"/></clipPath><g clip-path="url(#a)"><path d="m164.36 41.9158h-5.509v12.5922h-3.744v-12.5922h-2.63v-3.004h2.63v-2.1696c0-1.6387.537-2.9813 1.612-4.0278 1.075-1.047 2.453-1.5703 4.135-1.5703.448 0 .845.0227 1.192.068.346.0458.652.1143.917.205v3.1707c-.123-.0705-.337-.1566-.642-.2579-.306-.1007-.658-.1515-1.054-.1515-.776 0-1.371.2402-1.789.7206-.418.4805-.627 1.1911-.627 2.1313v1.8815h5.509v-3.5046l3.715-1.1226v4.6272h3.744v3.004h-3.744v7.2973c0 .9613.175 1.6387.527 2.033.351.3943.904.5918 1.658.5918.214 0 .471-.0504.772-.1516.3-.1012.563-.2221.787-.3641v3.0342c-.234.1314-.624.2528-1.169.3641s-1.083.1667-1.612.1667c-1.56 0-2.729-.4114-3.508-1.2363-.78-.8245-1.17-2.0658-1.17-3.7247zm-24.56 4.9006c0 1.6282.371 2.8721 1.115 3.7322.744.8597 1.809 1.2893 3.195 1.2893 1.345 0 2.369-.4296 3.072-1.2893.703-.8601 1.055-2.1343 1.055-3.8234 0-1.679-.365-2.9456-1.093-3.8007-.729-.8546-1.751-1.2817-3.065-1.2817-1.355 0-2.407.4472-3.156 1.3426-.749.895-1.123 2.1721-1.123 3.831zm-3.852.1209c0-2.579.733-4.6217 2.201-6.1289 1.467-1.5073 3.505-2.2607 6.113-2.2607 2.457 0 4.374.7257 5.756 2.1771 1.38 1.4519 2.071 3.4114 2.071 5.8791 0 2.5286-.734 4.5415-2.201 6.0382-1.468 1.4972-3.465 2.2451-5.992 2.2451-2.436 0-4.369-.7101-5.801-2.1313-1.432-1.4206-2.147-3.3605-2.147-5.8186zm-8.33-3.9292c0 .5263.168.9382.504 1.2369.336.2981 1.08.6748 2.232 1.1296 1.477.5872 2.514 1.2469 3.11 1.9801.597.7333.894 1.6212.894 2.6626 0 1.4665-.568 2.645-1.704 3.5348-1.136.8904-2.672 1.3351-4.608 1.3351-.652 0-1.373-.0781-2.163-.2352-.79-.1566-1.46-.356-2.01-.5993v-3.6103c.673.4653 1.396.8339 2.171 1.1069.774.2735 1.477.4099 2.109.4099.835 0 1.452-.1163 1.849-.349.398-.2321.596-.6219.596-1.1678 0-.5062-.206-.9332-.619-1.2822-.412-.349-1.195-.7514-2.346-1.2062-1.365-.5665-2.333-1.2036-2.904-1.9117-.571-.708-.856-1.608-.856-2.7003 0-1.4061.563-2.5613 1.689-3.4668 1.125-.905 2.586-1.3578 4.379-1.3578.55 0 1.167.0605 1.85.1818.683.1219 1.253.2785 1.712.4704v3.4895c-.49-.3238-1.06-.6013-1.712-.8345-.653-.2326-1.3-.349-1.942-.349-.703 0-1.25.1365-1.642.4095-.393.2734-.589.6476-.589 1.123zm-17.792 3.8083c0 1.6282.372 2.8721 1.117 3.7322.743.8597 1.808 1.2893 3.194 1.2893 1.345 0 2.369-.4296 3.072-1.2893.703-.8601 1.055-2.1343 1.055-3.8234 0-1.679-.365-2.9456-1.093-3.8007-.729-.8546-1.75-1.2817-3.064-1.2817-1.356 0-2.408.4472-3.157 1.3426-.749.895-1.124 2.1721-1.124 3.831zm-3.852.1209c0-2.579.734-4.6217 2.201-6.1289 1.468-1.5073 3.506-2.2607 6.115-2.2607 2.455 0 4.374.7257 5.754 2.1771 1.381 1.4519 2.072 3.4114 2.072 5.8791 0 2.5286-.734 4.5415-2.201 6.0382-1.468 1.4972-3.465 2.2451-5.992 2.2451-2.436 0-4.369-.7101-5.801-2.1313-1.432-1.4206-2.148-3.3605-2.148-5.8186zm-1.591-8.2834c.296 0 .561.0207.795.061.235.0402.433.0906.597.1515v3.7167c-.194-.1415-.477-.275-.849-.4019-.372-.1264-.823-.1894-1.352-.1894-.908 0-1.674.3792-2.301 1.1377-.627.7584-.94 1.9268-.94 3.5046v7.8739h-3.6994v-15.5962h3.6994v2.4576h.061c.336-.8496.846-1.5144 1.529-1.9948.682-.48 1.502-.7207 2.46-.7207zm-14.1839 13.184c.55 0 1.1563-.1259 1.819-.3793.6621-.2528 1.2735-.5862 1.8341-1.0011v3.4134c-.5911.3339-1.2608.5867-2.0102.7585-.7484.1722-1.5719.2578-2.4684.2578-2.3131 0-4.1934-.7252-5.64-2.1771-1.447-1.4509-2.1705-3.3047-2.1705-5.5598 0-2.5085.7387-4.5743 2.2167-6.1979 1.477-1.6236 3.5709-2.435 6.2818-2.435.6931 0 1.3933.0887 2.1021.2654.7078.1773 1.2704.3818 1.6885.6144v3.5198c-.5708-.4145-1.1538-.7358-1.7504-.9634-.5957-.2272-1.205-.3415-1.8261-.3415-1.4572 0-2.6343.4704-3.5308 1.4111-.897.9408-1.3456 2.2098-1.3456 3.8083 0 1.5773.4308 2.8066 1.2918 3.6864.861.8803 2.0305 1.32 3.508 1.32zm-11.2191 2.6701h-3.6987v-15.5962h3.6987zm-4.0813-20.102c0-.6069.2217-1.115.6652-1.5249.4434-.4095.9706-.6144 1.582-.6144.652 0 1.1923.21 1.62.6295.4283.42.6424.9231.6424 1.5098 0 .5968-.2192 1.0973-.6576 1.5017-.4384.4049-.9731.6069-1.6048.6069-.6322 0-1.1644-.2045-1.5972-.6139-.4333-.4104-.65-.908-.65-1.4947zm-3.1827-1.6539v21.7559h-3.8059v-17.0527h-.0608l-6.8024 17.0527h-2.5217l-6.9703-17.0527h-.0456v17.0527h-3.5156v-21.7559h5.4568l6.2975 16.1276h.0913l6.6492-16.1276z" fill="#737373"/><path d="m17.8667 42.7341h-17.361329v-17.2324h17.361329z" fill="#f25022"/><path d="m37.0347 42.7341h-17.3614v-17.2324h17.3614z" fill="#7fba00"/><path d="m17.8667 61.76h-17.361329v-17.2324h17.361329z" fill="#00a4ef"/><path d="m37.0347 61.76h-17.3614v-17.2324h17.3614z" fill="#ffb900"/></g></svg>

<svg width="172" height="86" viewBox="0 0 172 86" fill="none" xmlns="http://www.w3.org/2000/svg">
<g clip-path="url(#clip0)">
<path d="M164.36 41.9158H158.851V54.508H155.107V41.9158H152.477V38.9118H155.107V36.7422C155.107 35.1035 155.644 33.7609 156.719 32.7144C157.794 31.6674 159.172 31.1441 160.854 31.1441C161.302 31.1441 161.699 31.1668 162.046 31.2121C162.392 31.2579 162.698 31.3264 162.963 31.4171V34.5878C162.84 34.5173 162.626 34.4312 162.321 34.3299C162.015 34.2292 161.663 34.1784 161.267 34.1784C160.491 34.1784 159.896 34.4186 159.478 34.899C159.06 35.3795 158.851 36.0901 158.851 37.0303V38.9118H164.36V35.4072L168.075 34.2846V38.9118H171.819V41.9158H168.075V49.2131C168.075 50.1744 168.25 50.8518 168.602 51.2461C168.953 51.6404 169.506 51.8379 170.26 51.8379C170.474 51.8379 170.731 51.7875 171.032 51.6863C171.332 51.5851 171.595 51.4642 171.819 51.3222V54.3564C171.585 54.4878 171.195 54.6092 170.65 54.7205C170.105 54.8318 169.567 54.8872 169.038 54.8872C167.478 54.8872 166.309 54.4758 165.53 53.6509C164.75 52.8264 164.36 51.5851 164.36 49.9262V41.9158ZM139.8 46.8164C139.8 48.4446 140.171 49.6885 140.915 50.5486C141.659 51.4083 142.724 51.8379 144.11 51.8379C145.455 51.8379 146.479 51.4083 147.182 50.5486C147.885 49.6885 148.237 48.4143 148.237 46.7252C148.237 45.0462 147.872 43.7796 147.144 42.9245C146.415 42.0699 145.393 41.6428 144.079 41.6428C142.724 41.6428 141.672 42.09 140.923 42.9854C140.174 43.8804 139.8 45.1575 139.8 46.8164ZM135.948 46.9373C135.948 44.3583 136.681 42.3156 138.149 40.8084C139.616 39.3011 141.654 38.5477 144.262 38.5477C146.719 38.5477 148.636 39.2734 150.018 40.7248C151.398 42.1767 152.089 44.1362 152.089 46.6039C152.089 49.1325 151.355 51.1454 149.888 52.6421C148.42 54.1393 146.423 54.8872 143.896 54.8872C141.46 54.8872 139.527 54.1771 138.095 52.7559C136.663 51.3353 135.948 49.3954 135.948 46.9373ZM127.618 43.0081C127.618 43.5344 127.786 43.9463 128.122 44.245C128.458 44.5431 129.202 44.9198 130.354 45.3746C131.831 45.9618 132.868 46.6215 133.464 47.3547C134.061 48.088 134.358 48.9759 134.358 50.0173C134.358 51.4838 133.79 52.6623 132.654 53.5521C131.518 54.4425 129.982 54.8872 128.046 54.8872C127.394 54.8872 126.673 54.8091 125.883 54.652C125.093 54.4954 124.423 54.296 123.873 54.0527V50.4424C124.546 50.9077 125.269 51.2763 126.044 51.5493C126.818 51.8228 127.521 51.9592 128.153 51.9592C128.988 51.9592 129.605 51.8429 130.002 51.6102C130.4 51.3781 130.598 50.9883 130.598 50.4424C130.598 49.9362 130.392 49.5092 129.979 49.1602C129.567 48.8112 128.784 48.4088 127.633 47.954C126.268 47.3875 125.3 46.7504 124.729 46.0423C124.158 45.3343 123.873 44.4343 123.873 43.342C123.873 41.9359 124.436 40.7807 125.562 39.8752C126.687 38.9702 128.148 38.5174 129.941 38.5174C130.491 38.5174 131.108 38.5779 131.791 38.6992C132.474 38.8211 133.044 38.9777 133.503 39.1696V42.6591C133.013 42.3353 132.443 42.0578 131.791 41.8246C131.138 41.592 130.491 41.4756 129.849 41.4756C129.146 41.4756 128.599 41.6121 128.207 41.8851C127.814 42.1585 127.618 42.5327 127.618 43.0081ZM109.826 46.8164C109.826 48.4446 110.198 49.6885 110.943 50.5486C111.686 51.4083 112.751 51.8379 114.137 51.8379C115.482 51.8379 116.506 51.4083 117.209 50.5486C117.912 49.6885 118.264 48.4143 118.264 46.7252C118.264 45.0462 117.899 43.7796 117.171 42.9245C116.442 42.0699 115.421 41.6428 114.107 41.6428C112.751 41.6428 111.699 42.09 110.95 42.9854C110.201 43.8804 109.826 45.1575 109.826 46.8164ZM105.974 46.9373C105.974 44.3583 106.708 42.3156 108.175 40.8084C109.643 39.3011 111.681 38.5477 114.29 38.5477C116.745 38.5477 118.664 39.2734 120.044 40.7248C121.425 42.1767 122.116 44.1362 122.116 46.6039C122.116 49.1325 121.382 51.1454 119.915 52.6421C118.447 54.1393 116.45 54.8872 113.923 54.8872C111.487 54.8872 109.554 54.1771 108.122 52.7559C106.69 51.3353 105.974 49.3954 105.974 46.9373ZM104.383 38.6539C104.679 38.6539 104.944 38.6746 105.178 38.7149C105.413 38.7551 105.611 38.8055 105.775 38.8664V42.5831C105.581 42.4416 105.298 42.3081 104.926 42.1812C104.554 42.0548 104.103 41.9918 103.574 41.9918C102.666 41.9918 101.9 42.371 101.273 43.1295C100.646 43.8879 100.333 45.0563 100.333 46.6341V54.508H96.6336V38.9118H100.333V41.3694H100.394C100.73 40.5198 101.24 39.855 101.923 39.3746C102.605 38.8946 103.425 38.6539 104.383 38.6539ZM90.1991 51.8379C90.7491 51.8379 91.3554 51.712 92.0181 51.4586C92.6802 51.2058 93.2916 50.8724 93.8522 50.4575V53.8709C93.2611 54.2048 92.5914 54.4576 91.842 54.6294C91.0936 54.8016 90.2701 54.8872 89.3736 54.8872C87.0605 54.8872 85.1802 54.162 83.7336 52.7101C82.2866 51.2592 81.5631 49.4054 81.5631 47.1503C81.5631 44.6418 82.3018 42.576 83.7798 40.9524C85.2568 39.3288 87.3507 38.5174 90.0616 38.5174C90.7547 38.5174 91.4549 38.6061 92.1637 38.7828C92.8715 38.9601 93.4341 39.1646 93.8522 39.3972V42.917C93.2814 42.5025 92.6984 42.1812 92.1018 41.9536C91.5061 41.7264 90.8968 41.6121 90.2757 41.6121C88.8185 41.6121 87.6414 42.0825 86.7449 43.0232C85.8479 43.964 85.3993 45.233 85.3993 46.8315C85.3993 48.4088 85.8301 49.6381 86.6911 50.5179C87.5521 51.3982 88.7216 51.8379 90.1991 51.8379ZM78.98 54.508H75.2813V38.9118H78.98V54.508ZM74.8987 34.406C74.8987 33.7991 75.1204 33.291 75.5639 32.8811C76.0073 32.4716 76.5345 32.2667 77.1459 32.2667C77.7979 32.2667 78.3382 32.4767 78.7659 32.8962C79.1942 33.3162 79.4083 33.8193 79.4083 34.406C79.4083 35.0028 79.1891 35.5033 78.7507 35.9077C78.3123 36.3126 77.7776 36.5146 77.1459 36.5146C76.5137 36.5146 75.9815 36.3101 75.5487 35.9007C75.1154 35.4903 74.8987 34.9927 74.8987 34.406ZM71.716 32.7521V54.508H67.9101V37.4553H67.8493L61.0469 54.508H58.5252L51.5549 37.4553H51.5093V54.508H47.9937V32.7521H53.4505L59.748 48.8797H59.8393L66.4885 32.7521H71.716Z" fill="#737373"/>
<path d="M17.8667 42.7341H0.505371V25.5017H17.8667V42.7341Z" fill="#F25022"/>
<path d="M37.0347 42.7341H19.6733V25.5017H37.0347V42.7341Z" fill="#7FBA00"/>
<path d="M17.8667 61.76H0.505371V44.5276H17.8667V61.76Z" fill="#00A4EF"/>
<path d="M37.0347 61.76H19.6733V44.5276H37.0347V61.76Z" fill="#FFB900"/>
</g>
<defs>
<clipPath id="clip0">
<rect width="172" height="36.7634" fill="white" transform="translate(0 25)"/>
</clipPath>
</defs>
</svg>
